Sweet-Rainbow/icons/filezilla.svg

<?xml version="1.0" encoding="UTF-8" standalone="no"?>
<!-- Generator: Gravit.io -->

<svg
   xmlns:dc="http://purl.org/dc/elements/1.1/"
   xmlns:cc="http://creativecommons.org/ns#"
   xmlns:rdf="http://www.w3.org/1999/02/22-rdf-syntax-ns#"
   xmlns:svg="http://www.w3.org/2000/svg"
   xmlns="http://www.w3.org/2000/svg"
   xmlns:sodipodi="http://sodipodi.sourceforge.net/DTD/sodipodi-0.dtd"
   xmlns:inkscape="http://www.inkscape.org/namespaces/inkscape"
   style="isolation:isolate"
   viewBox="0 0 36 36"
   width="48"
   height="48"
   version="1.1"
   id="svg9"
   sodipodi:docname="filezilla.svg"
   inkscape:version="0.92.4 (5da689c313, 2019-01-14)">
  <metadata
     id="metadata15">
    <rdf:RDF>
      <cc:Work
         rdf:about="">
        <dc:format>image/svg+xml</dc:format>
        <dc:type
           rdf:resource="http://purl.org/dc/dcmitype/StillImage" />
        <dc:title></dc:title>
      </cc:Work>
    </rdf:RDF>
  </metadata>
  <defs
     id="defs13" />
  <sodipodi:namedview
     pagecolor="#ffffff"
     bordercolor="#666666"
     borderopacity="1"
     objecttolerance="10"
     gridtolerance="10"
     guidetolerance="10"
     inkscape:pageopacity="0"
     inkscape:pageshadow="2"
     inkscape:window-width="640"
     inkscape:window-height="480"
     id="namedview11"
     showgrid="false"
     inkscape:zoom="29.365243"
     inkscape:cx="25.325443"
     inkscape:cy="32"
     inkscape:current-layer="svg9"
     units="px" />
  <linearGradient
     id="_lgradient_24"
     x1="0"
     y1="0.5"
     x2="0.90748805"
     y2="0.92007786"
     gradientTransform="matrix(44,0,0,44,2,2)"
     gradientUnits="userSpaceOnUse">
    <stop
       offset="0%"
       stop-opacity="1"
       style="stop-color:rgb(255,65,108)"
       id="stop2" />
    <stop
       offset="84.34782608695653%"
       stop-opacity="1"
       style="stop-color:rgb(255,75,43)"
       id="stop4" />
  </linearGradient>
  <g
     id="g826"
     transform="matrix(0.81818182,0,0,0.81818182,-1.6363637,-1.6363637)">
    <path
       id="path7"
       d="m 16,42 v 0 c 1.104,0 2,0.896 2,2 v 0 c 0,1.104 -0.896,2 -2,2 v 0 H 7 C 4.24,46 2,43.76 2,41 V 7 C 2,4.24 4.24,2 7,2 h 34 c 2.76,0 5,2.24 5,5 v 34 c 0,2.76 -2.24,5 -5,5 h -9 v 0 c -1.104,0 -2,-0.896 -2,-2 v 0 c 0,-1.104 0.896,-2 2,-2 v 0 h 7 c 1.656,0 3,-1.344 3,-3 V 9 C 42,7.344 40.656,6 39,6 H 9 C 7.344,6 6,7.344 6,9 v 30 c 0,1.656 1.344,3 3,3 z M 16.27,11 11,34.377 h 4.282 L 17.769,23.915 H 29.457 L 18.511,33.714 21.365,37 22.827,36.247 c 2.764,-1.421 3.923,-0.59 6.02,-0.008 2.04,0.566 3.958,1.172 7.937,-1.122 l -0.79,-4.048 c -4.343,3.087 -5.716,0.333 -8.809,0.223 L 36.039,23.8 37,19.8 H 18.452 L 19.646,15 h 12.157 l 0.833,-4 H 16.269 Z"
       inkscape:connector-curvature="0"
       style="fill:url(#_lgradient_24);fill-rule:evenodd" />
  </g>
</svg>

<?xml version="1.0" encoding="UTF-8" standalone="no"?><!-- Generator: Gravit.io --><svg xmlns="http://www.w3.org/2000/svg" xmlns:xlink="http://www.w3.org/1999/xlink" style="isolation:isolate" viewBox="0 0 48 48" width="48pt" height="48pt"><linearGradient id="_lgradient_24" x1="0" y1="0.5" x2="0.9074880558539661" y2="0.9200778838291643" gradientTransform="matrix(44,0,0,44,2,2)" gradientUnits="userSpaceOnUse"><stop offset="0%" stop-opacity="1" style="stop-color:rgb(255,65,108)"/><stop offset="84.34782608695653%" stop-opacity="1" style="stop-color:rgb(255,75,43)"/></linearGradient><path d=" M 16 42 L 16 42 C 17.104 42 18 42.896 18 44 L 18 44 C 18 45.104 17.104 46 16 46 L 16 46 L 7 46 C 4.24 46 2 43.76 2 41 L 2 7 C 2 4.24 4.24 2 7 2 L 41 2 C 43.76 2 46 4.24 46 7 L 46 41 C 46 43.76 43.76 46 41 46 L 32 46 L 32 46 C 30.896 46 30 45.104 30 44 L 30 44 C 30 42.896 30.896 42 32 42 L 32 42 L 39 42 C 40.656 42 42 40.656 42 39 L 42 9 C 42 7.344 40.656 6 39 6 L 9 6 C 7.344 6 6 7.344 6 9 L 6 39 C 6 40.656 7.344 42 9 42 L 16 42 Z  M 16.27 11 L 11 34.377 L 15.282 34.377 L 17.769 23.915 L 29.457 23.915 L 18.511 33.714 L 21.365 37 L 22.827 36.247 C 25.591 34.826 26.75 35.657 28.847 36.239 C 30.887 36.805 32.805 37.411 36.784 35.117 L 35.994 31.069 C 31.651 34.156 30.278 31.402 27.185 31.292 L 36.039 23.8 L 37 19.8 L 18.452 19.8 L 19.646 15 L 31.803 15 L 32.636 11 L 16.269 11 L 16.27 11 Z " fill-rule="evenodd" fill="url(#_lgradient_24)"/></svg>
